X: 102
T:Holland Is A Fine Place
N: page 34
N: heptatonic
M:4/4
L:1/8
Q:80
C:Traditional
R:Slow March
B:RWF 28
K:Ador
cB|:"D"A2 {B}A2"G" B2 d2|"C"edef "G"{a}g2 ag|\
"Em"e2 dB "Am"A2 AB|"G"{GA}G6 cB| "D"A4 "G"B2 d2|
"C"edef "G"{a}g2 ba|\
"Em"gedB "Am"A2 A2|"D"{B}A6 (3def|\
"G"gdBd ef g2|"D"{b}a3 f "G"g2 ag|
"Em"{eg}e2 dB "Am" A2 AB|"G"{GA}G6 cB|\
"D"A2 {B}A2 "G"B2 d2|"C"edef "G"g2 ag|\
"Em"e2 dB "Am"A2AG|"D"A6:|
